X:45
T:Church Street Polka
R:polka
Z:2006 John Chambers <jc:trillian.mit.edu>
M:2/4
L:1/16
K:G
Bc \
| "G"d2B2 G3F | "C"E2 c4 AB | "D7"c2A2 F3E | "G"D2 d4 Bc \
| "G"d2B2 G3F | "C"E2 c4 AB | "D7"cBAG FEDF | "G"G2B2 G2 :| d2 |
|:"G"g4 "D7"f4 | "Am"c6 d2 | "C"e4 "D7"d2ed | "G"B6 c2 \
| "G"d3e d2B2 | "D7"A6 BA |1 "G"G3A B2c2 | "D7"d2d2 e2f2 :|2"G"G2g2 "D7"fgaf | "G"g4 g2 |]

